X: 10
T:Boys My Money's all Gone 
S:https://tunearch.org/wiki/Boys_My_Money%27s_All_Gone_(1)
L:1/8
K:D
M:4/4
|:"A"e2 a2 abag|"A"egab a2 ag|"E"edef gfgf|"E"ed c2 e4|!
"A"agag e2 g2|"A"ed c2 e3 A|"A"c2 AB A2 G2|1 "E"EGAB "A"A4:|2 "E"EGAB "A"A2 E2|]
|:"A"EGAB A2 AG|"A"EGAB =cBAG|"G"EFGF G2 GF|"G"EDEF GAGF|!
"A"EGAB A2 AB|"A"cBcd e2 ef|"A"gfed (3cdcAF|1 "E"EFAB "A"A2 E2:|2 "E"EFAB "A"A4|]

